X:1
T:King's Delight, The
M:6/4
L:1/8
R:Triple hornpipe
S:Frank Kidson - Old English Country Dances (1890)
Z:AK/Fiddler's Companion
K:D
d4 d2 a4a2|f3e e2 d3e d2|e3f e2 a3b ag|f6 e6||
d4 d2 a4a2|f3e f2d2e2f2|g3a g2 f3e f2|e2d2e2A2B2c2|
d2e2f2 gf ed3|e6 d6|e4 f2 gf ed3|e6 d6||
